X:1
T:Ecossaise
C:Ola Olsson
M:2/4
L:1/16
O:Skarup, Blekinge
Q:1/4=80
Z:Peter Svensson
R:Ecossaise
K:G
|: D2GB edBG | D2AB dcAF | G2Bd edBG | DcAF G4 :|
|: defg afdB | c2c2 c4   | BABc edBG | DcAF G4 :|

